src/assets/duotone/Lifebuoy.svg

<svg width="24" height="24" viewBox="0 0 24 24"  xmlns="http://www.w3.org/2000/svg">
<path opacity="0.4" d="M21.9702 12C21.9702 14.49 21.0602 16.77 19.5502 18.52C19.2202 18.9 18.8702 19.26 18.4902 19.57C16.7502 21.09 14.4702 22 11.9702 22C9.48022 22 7.20021 21.09 5.45021 19.58C5.07021 19.25 4.72021 18.9 4.39021 18.52C2.88021 16.77 1.97021 14.49 1.97021 12C1.97021 9.51 2.88021 7.23 4.40021 5.48C4.72021 5.1 5.08021 4.74 5.46021 4.42C7.21021 2.91 9.48022 2 11.9702 2C14.4702 2 16.7502 2.91 18.4902 4.43C18.8702 4.75 19.2302 5.1 19.5502 5.49C21.0602 7.24 21.9702 9.51 21.9702 12Z" />
<path d="M15.6501 14.6199L19.5501 18.5199C19.2201 18.8999 18.8701 19.2599 18.4901 19.5699L14.5901 15.6699C13.8501 16.1899 12.9601 16.4999 12.0001 16.4999C11.0201 16.4999 10.1201 16.1799 9.38014 15.6499L5.45014 19.5799C5.07014 19.2499 4.72014 18.8999 4.39014 18.5199L8.33014 14.5899C7.81014 13.8499 7.50014 12.9599 7.50014 11.9999C7.50014 11.0399 7.81014 10.1499 8.33014 9.40992L4.40014 5.47992C4.72014 5.09992 5.08014 4.73992 5.46014 4.41992L9.38014 8.34992C10.1201 7.81992 11.0201 7.49992 12.0001 7.49992C12.9601 7.49992 13.8501 7.80992 14.5901 8.32992L18.4901 4.42992C18.8701 4.74992 19.2301 5.09992 19.5501 5.48992L15.6501 9.37992C16.1801 10.1199 16.5001 11.0199 16.5001 11.9999C16.5001 12.9799 16.1801 13.8799 15.6501 14.6199Z" />
</svg>

<?xml version="1.0" encoding="UTF-8"?>
<svg width="24" height="24" viewBox="0 0 24 24" xmlns="http://www.w3.org/2000/svg">
 <path d="m21.97 12c0 2.49-0.91 4.77-2.42 6.52-0.33 0.38-0.68 0.74-1.06 1.05-1.74 1.52-4.02 2.43-6.52 2.43-2.49 0-4.77-0.91-6.52-2.42-0.38-0.33-0.73-0.68-1.06-1.06-1.51-1.75-2.42-4.03-2.42-6.52s0.91-4.77 2.43-6.52c0.32-0.38 0.68-0.74 1.06-1.06 1.75-1.51 4.02-2.42 6.51-2.42 2.5 0 4.78 0.91 6.52 2.43 0.38 0.32 0.74 0.67 1.06 1.06 1.51 1.75 2.42 4.02 2.42 6.51z" opacity=".4"/>
 <path d="m15.65 14.62 3.9 3.9c-0.33 0.38-0.68 0.74-1.06 1.05l-3.9-3.9c-0.74 0.52-1.63 0.83-2.59 0.83-0.98 0-1.88-0.32-2.62-0.85l-3.93 3.93c-0.38-0.33-0.73-0.68-1.06-1.06l3.94-3.93c-0.52-0.74-0.83-1.63-0.83-2.59s0.31-1.85 0.83-2.59l-3.93-3.93c0.32-0.38 0.68-0.74 1.06-1.06l3.92 3.93c0.73996-0.53 1.64-0.85 2.62-0.85 0.96 0 1.85 0.31 2.59 0.83l3.9-3.9c0.38 0.32 0.74 0.67 1.06 1.06l-3.9 3.89c0.53 0.73998 0.85 1.64 0.85 2.62s-0.32 1.88-0.85 2.62z"/>
</svg>
